X:1
T:Caprice No. 17
T:Caprice No. 17
T:Op. 20
T:Luigi Legnani (1790 - 1877)
C:Luigi Legnani
%%score ( 1 2 )
L:1/8
Q:1/4=120
M:2/4
K:G
V:1 treble-8 nm="Classical Guitar" snm="Guit."
V:2 treble-8 
V:1
"^Allegro"!p! z4 | z4 | z2 z d | dd dd | d2 z g | gg gg | g2 z d | dd dd | e2 dd | e2 dd | d2 z d | %11
 dd dd | d2 z g | gg gg | g2 z g | gg gg | !>![^Af]2 z!f! [Ff] | [Gg][^G^g] [Aa][^A^a] | %18
 [Bb] !>!d'2 c'/b/ | a !>!c'2 b/a/ | g !>!b2 a/g/ | f !>!a2 g/f/ | !fermata!z4 || %23
[K:Eb]!p!"^III" z4 | z4 | z2 z e | ee ee | e2 z g |"_cresc." gg gg | g2!f! z [eg] | %30
 [eg][eg] [eg][eg] | z [da] z [da] | z [da] z [da] | [eg]2 z e | ee ee | e2 z g | gg gg | %37
 g2 z [eg] | [eg][eg] [eg][eg] | [dg][dg] [dg][dg] | [=eg][eg] [eg][eg] | [G=Bd]g =b2 | %42
 (=a/"_dim."g/)(^f/=e/) (d/c/)=B/=A/ |:[K:G]!p! z2 z d | d2 z d | d2"_cresc." z d | d2 z d | %47
!f! dd dd | ed ed | ed ed | ed ed |!ff! e/d/e/d/ e/d/e/d/ | e/d/e/d/ e/d/e/d/ | e/d/e/d/ e/d/e/d/ | %54
 e/d/e/d/ e/d/e/d/ | z [GBg] z [ABf] | z [GBe] z [=FGd] | z c'/b/ (c'/b/)c'/b/ | %58
 (d'/c'/)b/a/ (a/g/)f/e/ | z [Bdg] [Bdg][Bdg] | z [Acf] [Acf][Acf] :| [GBg][GBg] [GBg][GBg] | %62
 [GBg][GBg] [GBg][GBg] | [GBg]2 z2 |"^III" [DGBdg]2 z2 | [B,DG]2 z2 |] %66
V:2
 G,/G/B,/G/ D/G/B,/G/ | G,/G/B,/G/ D/G/B,/G/ | G,/G/B,/G/ D/G/B,/G/ | G,/G/B,/G/ D/G/B,/G/ | %4
 G,/G/B,/G/ D/G/B,/G/ | G,/G/B,/G/ D/G/B,/G/ | G,/G/B,/G/ D/G/B,/G/ | G,/G/B,/G/ D/G/B,/G/ | %8
 F,/A/C/A/ D/A/C/A/ | F,/A/C/A/ D/A/C/A/ | G,/G/B,/G/ D/G/B,/G/ | G,/G/B,/G/ D/G/B,/G/ | %12
 G,/G/B,/G/ D/G/B,/G/ | G,/G/B,/G/ D/G/B,/G/ | G,/G/B,/G/ E/G/B,/G/ | G,/G/B,/G/ E/G/B,/G/ | %16
 !>!F,2 z F, | G,^G, A,^A, | B,2 z2 | C2 z2 | D2 z2 | D2 z2 | x4 ||[K:Eb] E/B/G/B/ B,/B/G/B/ | %24
 E/B/G/B/ B,/B/G/B/ | E/B/G/B/ B,/B/G/B/ | E/B/G/B/ B,/B/G/B/ | E/B/G/B/ B,/B/G/B/ | %28
 E/B/G/B/ B,/B/G/B/ | E/B/G/B/ B,/B/G/B/ | E/B/G/B/ B,/B/G/B/ | D/B/F/B/ B,/B/F/B/ | %32
 D/B/F/B/ B,/B/F/B/ | E/B/G/B/ B,/B/G/B/ | E/B/G/B/ B,/B/G/B/ | E/B/G/B/ B,/B/G/B/ | %36
 E/B/G/B/ B,/B/G/B/ | E/B/G/B/ B,/B/G/B/ | E/B/G/B/ B,/B/G/B/ | D/B/G/B/ D/B/G/B/ | %40
 ^C/B/G/B/ C/B/G/B/ | D2 z2 | D2 z2 |:[K:G] G,/G/B,/G/ D/G/B,/G/ | G,/G/B,/G/ D/G/B,/G/ | %45
 F,/A/C/A/ D/A/C/A/ | F,/A/C/A/ D/A/C/A/ | G,/G/B,/G/ D/G/B,/G/ | G,/G/B,/G/ D/G/B,/G/ | %49
 F,/A/C/A/ D/A/C/A/ | F,/A/C/A/ D/A/C/A/ | G,B, DG | G,B, DG | F,C DA | F,C DA | G, z ^D z | %56
 E z B, z | [CEGc]2 z2 | z4 | D2 z2 | D2 z2 :| G,G FE | DC B,A, | G,2 z2 | G,2 z2 | G,2 z2 |] %66

